Papirus/22x22/panel/smplayer-panel.svg

<?xml version="1.0" encoding="UTF-8" standalone="no"?>
<svg xmlns:dc="http://purl.org/dc/elements/1.1/" xmlns:cc="http://creativecommons.org/ns#" xmlns:rdf="http://www.w3.org/1999/02/22-rdf-syntax-ns#" xmlns:svg="http://www.w3.org/2000/svg" xmlns="http://www.w3.org/2000/svg" version="1.0" width="22" height="22" id="svg2817">
    <metadata id="metadata57">
        <rdf:RDF>
            <cc:Work rdf:about="">
                <dc:format>
                    image/svg+xml
                </dc:format>
                <dc:type rdf:resource="http://purl.org/dc/dcmitype/StillImage"/>
                <dc:title/>
            </cc:Work>
        </rdf:RDF>
    </metadata>
    <path id="path4362" d="m 11,3 c -4.432,0 -8,3.568 -8,8 0,4.432 3.568,8 8,8 4.432,0 8,-3.568 8,-8 0,-4.432 -3.568,-8 -8,-8 z m 0,1 A 2.0000001,2.0000001 0 0 1 13,6 2.0000001,2.0000001 0 0 1 11,8 2.0000001,2.0000001 0 0 1 9,6 2.0000001,2.0000001 0 0 1 11,4 Z M 6,9 A 2.0000001,2.0000001 0 0 1 8,11 2.0000001,2.0000001 0 0 1 6,13 2.0000001,2.0000001 0 0 1 4,11 2.0000001,2.0000001 0 0 1 6,9 Z m 10,0 a 2.0000001,2.0000001 0 0 1 2,2 2.0000001,2.0000001 0 0 1 -2,2 2.0000001,2.0000001 0 0 1 -2,-2 2.0000001,2.0000001 0 0 1 2,-2 z m -5.511719,0.634766 a 0.5,0.5 0 0 1 0.445313,0.25 A 0.5,0.5 0 0 1 10.75,10.566406 0.5,0.5 0 0 1 10.066406,10.384766 0.5,0.5 0 0 1 10.25,9.701172 0.5,0.5 0 0 1 10.488281,9.634766 Z M 11.853516,10 a 0.5,0.5 0 0 1 0.445312,0.25 0.5,0.5 0 0 1 -0.183594,0.683594 A 0.5,0.5 0 0 1 11.433594,10.75 0.5,0.5 0 0 1 11.615234,10.066406 0.5,0.5 0 0 1 11.853516,10 Z m -1.730469,1 a 0.5,0.5 0 0 1 0.443359,0.25 0.5,0.5 0 0 1 -0.18164,0.683594 A 0.5,0.5 0 0 1 9.7011719,11.75 0.5,0.5 0 0 1 9.8847656,11.066406 0.5,0.5 0 0 1 10.123047,11 Z m 1.365234,0.365234 a 0.5,0.5 0 0 1 0.445313,0.25 A 0.5,0.5 0 0 1 11.75,12.298828 0.5,0.5 0 0 1 11.066406,12.115234 0.5,0.5 0 0 1 11.25,11.433594 0.5,0.5 0 0 1 11.488281,11.365234 Z M 11,14 a 2.0000001,2.0000001 0 0 1 2,2 2.0000001,2.0000001 0 0 1 -2,2 2.0000001,2.0000001 0 0 1 -2,-2 2.0000001,2.0000001 0 0 1 2,-2 z" style="fill:#ffffff;fill-opacity:1"/>
</svg>

<?xml version="1.0" encoding="UTF-8" standalone="no"?>
<svg id="svg2817" xmlns:rdf="http://www.w3.org/1999/02/22-rdf-syntax-ns#" xmlns="http://www.w3.org/2000/svg" height="22" width="22" version="1.0" xmlns:cc="http://creativecommons.org/ns#" xmlns:dc="http://purl.org/dc/elements/1.1/">
 <metadata id="metadata57">
  <rdf:RDF>
   <cc:Work rdf:about="">
    <dc:format>image/svg+xml</dc:format>
    <dc:type rdf:resource="http://purl.org/dc/dcmitype/StillImage"/>
    <dc:title/>
   </cc:Work>
  </rdf:RDF>
 </metadata>
 <path id="path4362" fill="#fff" d="m11 3c-4.432 0-8 3.568-8 8s3.568 8 8 8 8-3.568 8-8-3.568-8-8-8zm0 1a2 2 0 0 1 2 2 2 2 0 0 1 -2 2 2 2 0 0 1 -2 -2 2 2 0 0 1 2 -2zm-5 5a2 2 0 0 1 2 2 2 2 0 0 1 -2 2 2 2 0 0 1 -2 -2 2 2 0 0 1 2 -2zm10 0a2 2 0 0 1 2 2 2 2 0 0 1 -2 2 2 2 0 0 1 -2 -2 2 2 0 0 1 2 -2zm-5.5117 0.63477a0.5 0.5 0 0 1 0.44531 0.25 0.5 0.5 0 0 1 -0.183 0.6812 0.5 0.5 0 0 1 -0.684 -0.181 0.5 0.5 0 0 1 0.184 -0.6838 0.5 0.5 0 0 1 0.238 -0.0664zm1.366 0.3652a0.5 0.5 0 0 1 0.44531 0.25 0.5 0.5 0 0 1 -0.18359 0.68359 0.5 0.5 0 0 1 -0.682 -0.184 0.5 0.5 0 0 1 0.181 -0.684 0.5 0.5 0 0 1 0.239 -0.066zm-1.7305 1a0.5 0.5 0 0 1 0.44336 0.25 0.5 0.5 0 0 1 -0.18164 0.68359 0.5 0.5 0 0 1 -0.6848 -0.184 0.5 0.5 0 0 1 0.1836 -0.684 0.5 0.5 0 0 1 0.2382 -0.066zm1.3652 0.36523a0.5 0.5 0 0 1 0.44531 0.25 0.5 0.5 0 0 1 -0.184 0.684 0.5 0.5 0 0 1 -0.684 -0.184 0.5 0.5 0 0 1 0.184 -0.681 0.5 0.5 0 0 1 0.238 -0.069zm-0.489 2.635a2 2 0 0 1 2 2 2 2 0 0 1 -2 2 2 2 0 0 1 -2 -2 2 2 0 0 1 2 -2z"/>
</svg>
